X:28
T:The Foxhunter's (Slip Jig)
I:titlefont Times-Roman 24
I:partsfont Times-Roman 20
M:9/8
L:1/8
R:slip jig
O:Trad. (21.10.2015/NS)
K:D
|:"D"FGF F2D"G"G2E|"D"FGF F2D"A"E2D|"D"FGFF2D"G"G2B|"D"AFD D2F E2D:|
|:"G"B=cB BAG "D/F#"FGA|"Em"B2E E2F G2B|"D"AB^c dcB "A"ABc|"D"d2D D2F E2D:|
%%vskip
%%text The Foxhunter's
%%text |: FGF F2D G2E | FGF F2D E2D | FGF F2D G2B | AFD D2F E2D :|
%%text |: B=cB BAG FGA | B2E E2F G2B | AB^c dcB ABc | d2D D2F E2D :|
%%vskip
P:A Fig For A Kiss
K:Edor
|: "Em"G2B E2B BAG | "D"F2A D2A AGF %| "Em"G2B E2B BAG | "C"BdB "Hm"AGF E2F :|
%"C"g2e g2e edB | "D"f2f dcd fed | "C"g2e g2e edB | "Hm"dBA GBd e2f |
%"C"g2e g2e edB | "D"f2f dcd fed | gfe fed ed A| BdB AGF E3||
%%begintext
|: Em   | D     | Em     | C  Hm     :|
|: C      | D     | C        | Hm          :|
%%endtext

